!!!SOCIAL_FUNCTION:	love songs
!!!PDT:	1909
!!!OTL: No_165_In_Her_Canoe.krn
!!!REG: Great_Lakes
!!!LANG: Non-Tone
!!!LING_GROUP: Algonquin
**kern
*staff1
=1-
*clefF4
*k[b-e-a-d-]
*M2/4
4c\
8.c\L
16e-\Jk
=2
4..e-\
16e-\
=3
4.B-\
8B-\
=4||
*M3/4
8A-\L
16B-\L
16c\JJ
4.B-\
8B-\
=5
8.A-\L
16F\Jk
4.E-\
8E-\
=6||
*M2/4
4B-\
8.e-\L
16B-\Jk
=7
16A-\LL
16F\J
[8A-\J
8A-\L]
16B-\L
16A-\JJ
=8||
*M3/4
16F\LK
[8.E-\J
4.E-\]
8E-\
=9
8c\L
8c\J
4B-\
12B-\L
12B-\
12B-\J
=10||
*M2/4
8.A-\L
16F\Jk
8.E-\L
16B-\Jk
=11
16B-\LK
8.A-\J
12F\L
12E-\
12F\J
=12
4.E-\
8E-\
=13||
*M3/4
4B-\
8.B-\L
16B-\Jk
12B-\L
12A-\
12c\J
=14||
*M2/4
2B-\
=15||
*M3/4
4e-\
16c\LK
8.B-\J
12B-\L
12A-\
12B-\J
=16
8.A-\L
16F\Jk
4E-\
12B-^\L
12A-\
12F\J
=17||
*M2/4
[2E-\
=18
2E-\]
=19
16c\LK
8.B-\J
12B-\L
12A-\
12B-\J
=20
4.B-\
8A-\
=21
16e-\LK
8.c\J
12A-\L
12E-\
12F\J
=22
2E-\
==
*-
